Numix-GalliumOS/32/mimetypes/text-x-c.svg

<?xml version="1.0" encoding="UTF-8" standalone="no"?>
<svg
   xmlns:dc="http://purl.org/dc/elements/1.1/"
   xmlns:cc="http://creativecommons.org/ns#"
   xmlns:rdf="http://www.w3.org/1999/02/22-rdf-syntax-ns#"
   xmlns:svg="http://www.w3.org/2000/svg"
   xmlns="http://www.w3.org/2000/svg"
   xmlns:sodipodi="http://sodipodi.sourceforge.net/DTD/sodipodi-0.dtd"
   xmlns:inkscape="http://www.inkscape.org/namespaces/inkscape"
   width="32"
   height="32"
   viewBox="0 0 32 32"
   id="svg2"
   version="1.1"
   inkscape:version="0.48.5 r10040"
   sodipodi:docname="text-x-c.svg">
  <metadata
     id="metadata16">
    <rdf:RDF>
      <cc:Work
         rdf:about="">
        <dc:format>image/svg+xml</dc:format>
        <dc:type
           rdf:resource="http://purl.org/dc/dcmitype/StillImage" />
      </cc:Work>
    </rdf:RDF>
  </metadata>
  <defs
     id="defs14" />
  <sodipodi:namedview
     pagecolor="#ffffff"
     bordercolor="#666666"
     borderopacity="1"
     objecttolerance="10"
     gridtolerance="10"
     guidetolerance="10"
     inkscape:pageopacity="0"
     inkscape:pageshadow="2"
     inkscape:window-width="1280"
     inkscape:window-height="970"
     id="namedview12"
     showgrid="true"
     inkscape:zoom="10.429825"
     inkscape:cx="12.854204"
     inkscape:cy="19.181799"
     inkscape:window-x="0"
     inkscape:window-y="0"
     inkscape:window-maximized="1"
     inkscape:current-layer="svg2">
    <inkscape:grid
       type="xygrid"
       id="grid3004" />
  </sodipodi:namedview>
  <path
     style="fill:#2d2d2d;fill-opacity:1"
     d="M 5.335888,2.969e-4 C 4.648414,3.119e-4 4,0.6767878 4,1.3940311 L 4,30.606268 C 4,31.282757 4.687474,32 5.335888,32 l 21.327332,0 c 0.648414,0 1.335888,-0.717243 1.335888,-1.393732 L 28,8.9999996 l -9,-9 z"
     id="path4-1"
     inkscape:connector-curvature="0"
     sodipodi:nodetypes="ssssssccs" />
  <path
     style="fill:#000000;fill-opacity:0.19599998"
     d="M 21,8.9999996 28,16 28,8.9999996 z"
     id="path6-4"
     inkscape:connector-curvature="0"
     sodipodi:nodetypes="cccc" />
  <path
     style="fill:#ffffff;fill-opacity:0.39200003"
     d="m 19.000306,2.969e-4 8.991594,8.9997027 -7.613262,0 c -0.672951,0 -1.378332,-0.7134896 -1.378332,-1.3864402 z"
     id="path8-6"
     inkscape:connector-curvature="0"
     sodipodi:nodetypes="ccssc" />
  <path
     style="fill:#dcdcdc"
     d="m 10,18.392897 c 0,-0.780667 0.14945,-1.551813 0.443955,-2.313438 0.298901,-0.766387 0.725275,-1.45185 1.283517,-2.05639 0.571429,-0.599781 1.26154,-1.090078 2.079122,-1.46137 C 14.619781,12.190406 15.551647,12 16.602197,12 c 1.23077,0 2.29011,0.261809 3.186814,0.775906 0.905495,0.518857 1.569231,1.194802 1.999999,2.023068 l -2.061537,1.318566 c -0.153847,-0.361774 -0.356044,-0.661663 -0.602198,-0.904431 -0.246154,-0.252288 -0.514286,-0.447456 -0.813186,-0.59502 -0.285715,-0.142805 -0.584616,-0.247528 -0.892309,-0.30465 -0.312088,-0.0714 -0.610989,-0.109484 -0.896703,-0.109484 -0.632966,0 -1.191208,0.128525 -1.670329,0.380813 -0.479121,0.252288 -0.879122,0.58074 -1.204397,0.990113 -0.307691,0.399854 -0.549451,0.85683 -0.716482,1.375687 -0.153847,0.504577 -0.232968,1.009153 -0.232968,1.513732 0,0.566457 0.08791,1.113876 0.272528,1.642254 0.193407,0.518857 0.457142,0.975833 0.795603,1.370927 0.347254,0.399853 0.764835,0.718784 1.243957,0.956792 0.479121,0.242769 1.002199,0.361772 1.573627,0.361772 0.294505,0 0.602197,-0.03332 0.90989,-0.104723 0.312088,-0.07616 0.610989,-0.190406 0.892307,-0.347493 0.298901,-0.152324 0.571428,-0.352251 0.817582,-0.595019 0.246154,-0.252289 0.448352,-0.552179 0.602198,-0.89967 L 22,22.02014 c -0.206593,0.480776 -0.509891,0.909189 -0.909889,1.285243 -0.391209,0.357012 -0.835166,0.666422 -1.340661,0.918711 -0.505495,0.252287 -1.037363,0.442694 -1.595605,0.57598 C 17.6,24.933357 17.050549,25 16.505494,25 15.547253,25 14.668131,24.809594 13.863735,24.424021 13.072527,24.038448 12.386813,23.53863 11.806593,22.92457 11.235164,22.296228 10.786813,21.591725 10.465934,20.811058 10.153847,20.016111 10,19.211645 10,18.392897"
     id="path10"
     inkscape:connector-curvature="0" />
</svg>

<svg xmlns="http://www.w3.org/2000/svg" viewBox="0 0 32 32">
 <path d="m 5.336 0 c -0.687 0 -1.336 0.676 -1.336 1.394 l 0 29.21 c 0 0.676 0.687 1.394 1.336 1.394 l 21.327 0 c 0.648 0 1.336 -0.717 1.336 -1.394 l 0.001 -21.606 l -9 -9 z" style="fill:#2d2d2d;fill-opacity:1"/>
 <path d="m 21 9 7 7 0 -7 z" style="fill:#000;fill-opacity:0.196"/>
 <path d="m 19 0 8.992 9 -7.613 0 c -0.673 0 -1.378 -0.713 -1.378 -1.386 z" style="fill:#fff;fill-opacity:0.392"/>
 <path d="m 10 18.393 c 0 -0.781 0.149 -1.552 0.444 -2.313 0.299 -0.766 0.725 -1.452 1.284 -2.056 0.571 -0.6 1.262 -1.09 2.079 -1.461 c 0.813 -0.371 1.745 -0.562 2.796 -0.562 c 1.231 0 2.29 0.262 3.187 0.776 0.905 0.519 1.569 1.195 2 2.023 l -2.062 1.319 c -0.154 -0.362 -0.356 -0.662 -0.602 -0.904 -0.246 -0.252 -0.514 -0.447 -0.813 -0.595 -0.286 -0.143 -0.585 -0.248 -0.892 -0.305 -0.312 -0.071 -0.611 -0.109 -0.897 -0.109 -0.633 0 -1.191 0.129 -1.67 0.381 -0.479 0.252 -0.879 0.581 -1.204 0.99 -0.308 0.4 -0.549 0.857 -0.716 1.376 -0.154 0.505 -0.233 1.01 -0.233 1.514 0 0.566 0.088 1.114 0.273 1.642 0.193 0.519 0.457 0.976 0.796 1.371 0.347 0.4 0.765 0.719 1.244 0.957 0.479 0.243 1 0.362 1.574 0.362 0.295 0 0.602 -0.033 0.91 -0.105 0.312 -0.076 0.611 -0.19 0.892 -0.347 0.299 -0.152 0.571 -0.352 0.818 -0.595 0.246 -0.252 0.448 -0.552 0.602 -0.9 l 2.193 1.171 c -0.207 0.481 -0.51 0.909 -0.91 1.285 -0.391 0.357 -0.835 0.666 -1.341 0.919 -0.505 0.252 -1.037 0.443 -1.596 0.576 c -0.554 0.133 -1.103 0.2 -1.648 0.2 -0.958 0 -1.837 -0.19 -2.642 -0.576 -0.791 -0.386 -1.477 -0.885 -2.057 -1.499 -0.571 -0.628 -1.02 -1.333 -1.341 -2.114 -0.312 -0.795 -0.466 -1.599 -0.466 -2.418" style="fill:#dcdcdc"/>
</svg>
